X:1
T:Title
%%score { 1 | 2 }
L:1/8
M:6/8
K:Bb
V:1 treble nm="Grand Piano"
V:2 bass 
V:1
 z3 z2[Q:1/4=84] [DF]/[EG]/ | [DF][B,D][CE] [DF][DB][DB] | [EB]3 [EA]2 F/F/ | edc [=Ec][EG][EA] | %4
 F3- F2 F/G/ | [DF][B,D][CE] [DF][DB][Fd] |[M:7/8] [Ge][Gd][Ge] G3 G/G/ | %7
[M:3/4] FB B[EA] [EG][EA] |[M:5/8] [DB]-[DB]- [DB]3 |[M:1/8] d/d/ |[M:3/4] c>c cc de | d3 B2 B/B/ | %12
 BB B[=EB] [EG][Ed] | c4- cF/G/ | [DF][B,D] [CE][DF] [DB][Fd] |[M:7/8] [Ge][Gd][Ge] G3 G/G/ | %16
[M:3/4] FB B[EA] [EG][EA] |[M:5/8] [DB]-[DB]- [DB]3 |] %18
V:2
 z3 z2 [B,,B,]/[B,,B,]/ | [B,,B,][B,,F,][B,,F,] [B,,B,][B,,B,][B,,F,] | %2
 [C,F,]3 [C,F,]2 [F,A,]/[F,A,]/ | [F,CF][F,B,F][F,A,F] [C,G,][C,B,][C,C] | %4
 [F,A,]3- [F,A,]2 [F,A,E]/[F,A,E]/ | [B,,B,][B,,F,][B,,F,] [B,,B,][B,,B,][B,,B,] | %6
[M:7/8] [E,B,][E,B,][E,B,] [E,B,E]3 [=E,B,_D]/[E,B,D]/ | %7
[M:3/4] [F,B,D][F,D] [F,D][F,,F,] [F,,F,][F,,F,] |[M:5/8] [B,,F,]-[B,,F,]- [B,,F,]3 | %9
[M:1/8][K:treble] [B,F]/[B,F]/ |[M:3/4] [F,A,F]>[F,A,F] [F,A,F][F,A,F] [F,B,F][F,CF] | %11
 [B,F]3[K:bass] [B,D]2 [B,D]/[B,D]/ | [G,B,D][G,B,D] [G,B,D][C,C] [C,C][C,B,] | %13
 [F,A,F]4- [F,A,F][F,A,E]/[F,A,E]/ | [B,,B,][B,,F,] [B,,F,][B,,B,] [B,,B,][B,,B,] | %15
[M:7/8] [E,B,][E,B,][E,B,] [E,B,E]3 [=E,B,_D]/[E,B,D]/ | %16
[M:3/4] [G,B,D][F,D] [F,D][F,,F,] [F,,F,][F,,F,] |[M:5/8] [B,,F,]-[B,,F,]- [B,,F,]3 |] %18

